content/packs/basic_addition/pims/grid_counting/field/graphics/icons/forty_block_icon.svg

<svg width="50" xmlns="http://www.w3.org/2000/svg" height="50" fill="none"><defs><clipPath id="a" class="frame-clip frame-clip-def"><rect rx="0" ry="0" width="50" height="50"/></clipPath></defs><g clip-path="url(#a)"><g class="fills"><rect rx="0" ry="0" width="50" height="50" class="frame-background"/></g><g class="frame-children"><g class="fills"><rect rx="0" ry="0" x="-150" y="-39" width="350" height="128" class="frame-background"/></g><g class="frame-children"><rect rx="0" ry="0" x="-143" y="-35" width="336" height="120" style="fill: rgb(204, 204, 204); fill-opacity: 1;" class="fills"/><g class="strokes"><rect rx="0" ry="0" x="-143" y="-35" width="336" height="120" style="fill: none; stroke-width: 3; stroke: rgb(0, 0, 0); stroke-opacity: 1;" class="stroke-shape"/></g><g class="fills"><rect rx="0" ry="0" x="13.5" y="17" width="23" height="16" class="frame-background"/></g><g class="frame-children"><g class="fills"><rect rx="0" ry="0" x="26.217" y="17" width="10.283" height="16" class="frame-background"/></g><g class="frame-children"><path d="M36.5 24.989c0 1.684-.178 3.12-.533 4.31-.342 1.19-.889 2.105-1.643 2.743-.754.639-1.749.958-2.987.958-1.749 0-3.043-.704-3.882-2.112-.825-1.422-1.238-3.388-1.238-5.899 0-1.669.164-3.098.491-4.288.341-1.205.889-2.119 1.643-2.743.753-.639 1.749-.958 2.986-.958 1.735 0 3.03.704 3.883 2.112.853 1.393 1.28 3.352 1.28 5.877Zm-8.021 0c0 2.032.213 3.556.64 4.572.426 1.001 1.166 1.502 2.218 1.502 1.039 0 1.778-.501 2.219-1.502.441-1.002.661-2.526.661-4.572 0-2.017-.22-3.526-.661-4.528-.441-1.016-1.18-1.524-2.219-1.524-1.052 0-1.792.508-2.218 1.524-.427 1.002-.64 2.511-.64 4.528Z" style="display: inline; font-weight: 500; font-size: 5.64444px; line-height: 1.25; font-family: &quot;Noto Sans&quot;; stroke-width: 0.264583; fill: rgb(0, 0, 0); fill-opacity: 1;" class="fills"/></g><g class="fills"><rect rx="0" ry="0" x="13.5" y="17.352" width="11.371" height="15.296" class="frame-background"/></g><g class="frame-children"><path d="M24.871 29.277h-2.112v3.371h-2.198v-3.371H13.5v-1.792l7.019-10.133h2.24v10.005h2.112Zm-4.31-6.058c0-.669.015-1.295.043-1.878.028-.597.05-1.095.064-1.493h-.085a7.08 7.08 0 0 1-.427.875 5.79 5.79 0 0 1-.491.789l-4.032 5.845h4.928Z" style="display: inline; font-weight: 500; font-size: 5.64444px; line-height: 1.25; font-family: &quot;Noto Sans&quot;; stroke-width: 0.264583; fill: rgb(0, 0, 0); fill-opacity: 1;" class="fills"/></g></g></g></g></g></svg>

<svg width="50" xmlns="http://www.w3.org/2000/svg" height="50" id="screenshot-15768c80-d9e4-805b-8005-5e500e2fa669" viewBox="0 0 50 50" xmlns:xlink="http://www.w3.org/1999/xlink" fill="none" version="1.1"><g id="shape-15768c80-d9e4-805b-8005-5e500e2fa669"><defs><clipPath id="frame-clip-15768c80-d9e4-805b-8005-5e500e2fa669-render-15" class="frame-clip frame-clip-def"><rect rx="0" ry="0" x="0" y="0" width="50" height="50" transform="matrix(1.000000, 0.000000, 0.000000, 1.000000, 0.000000, 0.000000)"/></clipPath></defs><g class="frame-container-wrapper"><g class="frame-container-blur"><g class="frame-container-shadows"><g clip-path="url(#frame-clip-15768c80-d9e4-805b-8005-5e500e2fa669-render-15)" fill="none"><g class="fills" id="fills-15768c80-d9e4-805b-8005-5e500e2fa669"><rect rx="0" ry="0" x="0" y="0" width="50" height="50" transform="matrix(1.000000, 0.000000, 0.000000, 1.000000, 0.000000, 0.000000)" class="frame-background"/></g><g class="frame-children"><g id="shape-c079da11-ea97-8013-8006-2a6e1b8a14ed"><g class="frame-container-wrapper"><g class="frame-container-blur"><g class="frame-container-shadows"><g fill="none"><g class="fills" id="fills-c079da11-ea97-8013-8006-2a6e1b8a14ed"><rect rx="0" ry="0" x="3" y="3" width="44" height="44" transform="matrix(1.000000, 0.000000, 0.000000, 1.000000, 0.000000, 0.000000)" class="frame-background"/></g><g class="frame-children"><g id="shape-c079da11-ea97-8013-8006-2a6e1b8a6993"><g class="fills" id="fills-c079da11-ea97-8013-8006-2a6e1b8a6993"><rect rx="0" ry="0" x="3" y="3" transform="matrix(1.000000, 0.000000, 0.000000, 1.000000, 0.000000, 0.000000)" width="44" height="44" style="fill: rgb(204, 204, 204); fill-opacity: 1;"/></g><g id="strokes-18cb738f-1f02-80ab-8006-2a6e91ca3d45-c079da11-ea97-8013-8006-2a6e1b8a6993" class="strokes"><g class="stroke-shape"><rect rx="0" ry="0" x="3" y="3" transform="matrix(1.000000, 0.000000, 0.000000, 1.000000, 0.000000, 0.000000)" width="44" height="44" style="fill: none; stroke-width: 3; stroke: rgb(0, 0, 0); stroke-opacity: 1;"/></g></g></g></g></g></g></g></g></g><g id="shape-15768c80-d9e4-805b-8005-5e5054b1dc03"><g class="frame-container-wrapper"><g class="frame-container-blur"><g class="frame-container-shadows"><g fill="none"><g class="fills" id="fills-15768c80-d9e4-805b-8005-5e5054b1dc03"><rect rx="0" ry="0" x="13.499999999999659" y="17" width="23" height="16" transform="matrix(1.000000, 0.000000, 0.000000, 1.000000, 0.000000, 0.000000)" class="frame-background"/></g><g class="frame-children"><g id="shape-15768c80-d9e4-805b-8005-5e5054b1dc04"><g class="frame-container-wrapper"><g class="frame-container-blur"><g class="frame-container-shadows"><g fill="none"><g class="fills" id="fills-15768c80-d9e4-805b-8005-5e5054b1dc04"><rect rx="0" ry="0" x="26.2172711583072" y="17" width="10.28272884169246" height="16" transform="matrix(1.000000, 0.000000, 0.000000, 1.000000, 0.000000, 0.000000)" class="frame-background"/></g><g class="frame-children"><g id="shape-15768c80-d9e4-805b-8005-5e5054b1dc05"><g class="fills" id="fills-15768c80-d9e4-805b-8005-5e5054b1dc05"><path d="M36.500,24.989C36.500,26.673,36.322,28.109,35.967,29.299C35.625,30.489,35.078,31.404,34.324,32.042C33.570,32.681,32.575,33.000,31.337,33.000C29.588,33.000,28.294,32.296,27.455,30.888C26.630,29.466,26.217,27.500,26.217,24.989C26.217,23.320,26.381,21.891,26.708,20.701C27.049,19.496,27.597,18.582,28.351,17.958C29.104,17.319,30.100,17.000,31.337,17.000C33.072,17.000,34.367,17.704,35.220,19.112C36.073,20.505,36.500,22.464,36.500,24.989ZL36.500,24.989ZM28.479,24.989C28.479,27.021,28.692,28.545,29.119,29.561C29.545,30.562,30.285,31.063,31.337,31.063C32.376,31.063,33.115,30.562,33.556,29.561C33.997,28.559,34.217,27.035,34.217,24.989C34.217,22.972,33.997,21.463,33.556,20.461C33.115,19.445,32.376,18.937,31.337,18.937C30.285,18.937,29.545,19.445,29.119,20.461C28.692,21.463,28.479,22.972,28.479,24.989ZL28.479,24.989Z" style="display: inline; font-weight: 500; font-size: 5.64444px; line-height: 1.25; font-family: &quot;Noto Sans&quot;; stroke-width: 0.264583; fill: rgb(0, 0, 0); fill-opacity: 1;"/></g></g></g></g></g></g></g></g><g id="shape-15768c80-d9e4-805b-8005-5e5054b1dc06"><g class="frame-container-wrapper"><g class="frame-container-blur"><g class="frame-container-shadows"><g fill="none"><g class="fills" id="fills-15768c80-d9e4-805b-8005-5e5054b1dc06"><rect rx="0" ry="0" x="13.499999999999659" y="17.351954437913946" width="11.370737568920504" height="15.296091124172108" transform="matrix(1.000000, 0.000000, 0.000000, 1.000000, 0.000000, 0.000000)" class="frame-background"/></g><g class="frame-children"><g id="shape-15768c80-d9e4-805b-8005-5e5054b1dc07"><g class="fills" id="fills-15768c80-d9e4-805b-8005-5e5054b1dc07"><path d="M24.871,29.277L22.759,29.277L22.759,32.648L20.561,32.648L20.561,29.277L13.500,29.277L13.500,27.485L20.519,17.352L22.759,17.352L22.759,27.357L24.871,27.357ZM20.561,23.219C20.561,22.550,20.576,21.924,20.604,21.341C20.632,20.744,20.654,20.246,20.668,19.848L20.583,19.848C20.469,20.132,20.327,20.424,20.156,20.723C20.000,21.021,19.836,21.284,19.665,21.512L15.633,27.357L20.561,27.357Z" style="display: inline; font-weight: 500; font-size: 5.64444px; line-height: 1.25; font-family: &quot;Noto Sans&quot;; stroke-width: 0.264583; fill: rgb(0, 0, 0); fill-opacity: 1;"/></g></g></g></g></g></g></g></g></g></g></g></g></g></g></g></g></g></g></g></g></svg>
